X:520
T: MICH ZIEHTS HINAUS
N: F0994
O: Europa, Mitteleuropa, Deutschland
R: Natur - Lied
M: 2/4
L: 1/16
K: Eb
B2 | G3FG2B2 | G3FG2
B2 | A4G2F2 | G4z2
B2 | G3FG2B2 | G3FG2
B2 | d4c2=A2 | B4z2
B2 | f4d2B2 | e3
BG2B2 | f4d2B2 | e4z2
e2 | c3ce2c2 | B3
Be2B2 | B4A2F2 | E4z2
B2 | f4d2B2 | e3
BG2B2 | f4d2B2 | e4z2
e2 | c3ce2c2 | B3
Be2B2 | B4A2F2 | E4z2

